X:1
T:Pohlsk dans 
T:(Totakt-pols, nr. JMB-31)
S:efter Jens Millersen Bjerg
R:Totakt-pols
O:Husby, Ringkbing amt, Danmark
N:Lt nr. 17 p CD:n "Totakt-pols" av ke Persson, Ethel Wieslander m fl. Noterna kommer frn nothftet som kan kpas med CD:n s vissa avvikelser kan frekomma. Lten har dr beteckningen JMB-31. Danmark|Fler ltar frn Danmark...
M:2/4
L:1/16
K:D
A2|:d4 e4|(fg)(fe) d2e2|f4 g4|(ab)(ag) f2a2|b2a2g2f2|[ec]2[ec][ec] [ec]2[ec]2|[1 [ec]6 A2:|[2 [ec]6 f2]|
|:e2d2e2f2|e2d2e2f2|g2f2e2d2|c2(Bc) A2A2|d4 e4|(fg)(fe) d2e2|
f4 g4|(ab)(ag) f2a2|b2g2e2c2|[dF]2[dF][dF] [dF]2[dF]2|[1 [dF]6 f2:|[2 [dF]6 z2]|
